static/cards/FrenchDeck/default/card_clubs_10.svg

<svg width="219" height="304" viewBox="0 0 219 304" fill="none" xmlns="http://www.w3.org/2000/svg">
<g filter="url(#filter0_d_18_626)">
<g clip-path="url(#clip0_18_626)">
<rect x="8" y="4" width="203" height="288" rx="10" fill="white"/>
<path d="M15.4787 44.2002C14.3977 44.2002 13.737 43.4595 13.737 42.2783V18.395C13.737 17.2139 14.3977 16.4731 15.4787 16.4731C16.5598 16.4731 17.2404 17.2139 17.2404 18.395V42.2783C17.2404 43.4595 16.5598 44.2002 15.4787 44.2002ZM18.2454 30.8672V29.8662C18.2454 21.5781 21.7889 16.0928 27.9749 16.0928C34.1609 16.0928 37.6844 21.5781 37.6844 29.8662V30.8672C37.6844 39.1353 34.1409 44.5806 27.9549 44.5806C21.7889 44.5806 18.2454 39.1553 18.2454 30.8672ZM21.7488 29.8862V30.8271C21.7488 37.4937 24.1312 41.5576 27.9749 41.5576C31.8187 41.5576 34.201 37.4937 34.201 30.8271V29.8862C34.201 23.2197 31.7986 19.1357 27.9549 19.1357C24.1312 19.1357 21.7488 23.2197 21.7488 29.8862Z" fill="#211C1D"/>
<path d="M24.0324 72C23.815 72 23.6387 71.826 23.6387 71.6115C23.6387 70.8912 24.9316 68.2013 25.1901 66.0959C25.2179 65.8695 24.886 65.7854 24.7639 65.9791C24.0982 67.0359 23.1904 68.515 20.9784 68.4633L20.9355 68.4647C20.9068 68.4656 20.8781 68.4666 20.8492 68.4666C18.4471 68.4666 16.5 66.3541 16.5 63.7483C16.5 61.1425 18.4471 59.03 20.8492 59.03C21.3182 59.03 21.7697 59.1108 22.1928 59.26C22.2915 59.2948 22.3921 59.1811 22.3431 59.0897C21.9682 58.3927 21.7531 57.5823 21.7531 56.717C21.7531 54.1483 23.625 52 26 52C28.375 52 30.2469 54.1483 30.2469 56.717C30.2469 57.5823 30.0318 58.3927 29.6569 59.0897C29.6079 59.1811 29.7085 59.2948 29.8072 59.26C30.2303 59.1108 30.6818 59.03 31.1508 59.03C33.5529 59.03 35.5 61.1425 35.5 63.7483C35.5 66.3541 33.5529 68.4666 31.1508 68.4666C31.1219 68.4666 31.0932 68.4656 31.0645 68.4647L31.0216 68.4633C28.8096 68.515 27.9018 67.0359 27.2361 65.9791C27.114 65.7854 26.7821 65.8695 26.8099 66.0959C27.0684 68.2013 28.3613 70.8913 28.3613 71.6114C28.3613 71.826 28.185 72 27.9676 72H24.0324Z" fill="#211C1D"/>
<path d="M203.521 251.8C204.602 251.8 205.263 252.541 205.263 253.722L205.263 277.605C205.263 278.786 204.602 279.527 203.521 279.527C202.44 279.527 201.76 278.786 201.76 277.605L201.76 253.722C201.76 252.541 202.44 251.8 203.521 251.8ZM200.755 265.133L200.755 266.134C200.755 274.422 197.211 279.907 191.025 279.907C184.839 279.907 181.316 274.422 181.316 266.134L181.316 265.133C181.316 256.865 184.859 251.419 191.045 251.419C197.211 251.419 200.755 256.845 200.755 265.133ZM197.251 266.114L197.251 265.173C197.251 258.506 194.869 254.442 191.025 254.442C187.181 254.442 184.799 258.506 184.799 265.173L184.799 266.114C184.799 272.78 187.201 276.864 191.045 276.864C194.869 276.864 197.251 272.78 197.251 266.114Z" fill="#211C1D"/>
<path d="M194.968 224C195.185 224 195.361 224.174 195.361 224.389C195.361 225.109 194.068 227.799 193.81 229.904C193.782 230.131 194.114 230.215 194.236 230.021C194.902 228.964 195.81 227.485 198.022 227.537L198.065 227.535C198.093 227.534 198.122 227.533 198.151 227.533C200.553 227.533 202.5 229.646 202.5 232.252C202.5 234.858 200.553 236.97 198.151 236.97C197.682 236.97 197.23 236.889 196.807 236.74C196.708 236.705 196.608 236.819 196.657 236.91C197.032 237.607 197.247 238.418 197.247 239.283C197.247 241.852 195.375 244 193 244C190.625 244 188.753 241.852 188.753 239.283C188.753 238.418 188.968 237.607 189.343 236.91C189.392 236.819 189.292 236.705 189.193 236.74C188.77 236.889 188.318 236.97 187.849 236.97C185.447 236.97 183.5 234.858 183.5 232.252C183.5 229.646 185.447 227.533 187.849 227.533C187.878 227.533 187.907 227.534 187.935 227.535L187.978 227.537C190.19 227.485 191.098 228.964 191.764 230.021C191.886 230.215 192.218 230.131 192.19 229.904C191.932 227.799 190.639 225.109 190.639 224.389C190.639 224.174 190.815 224 191.032 224L194.968 224Z" fill="#211C1D"/>
<path d="M60.84 76C60.325 76 59.9075 75.5825 59.9075 75.0675C59.9075 73.339 62.9696 66.8831 63.5817 61.8301C63.6476 61.2867 62.8615 61.0849 62.5725 61.5498C60.9958 64.0863 58.8456 67.6359 53.6068 67.512L53.5051 67.5152C53.4372 67.5176 53.3693 67.5199 53.3008 67.5199C47.6117 67.5199 43 62.4499 43 56.1959C43 49.9419 47.6117 44.8719 53.3008 44.8719C54.4114 44.8719 55.4808 45.066 56.483 45.4239C56.7167 45.5074 56.9551 45.2346 56.8388 45.0153C55.951 43.3424 55.4416 41.3975 55.4416 39.3209C55.4416 33.156 59.875 28 65.5 28C71.125 28 75.5584 33.156 75.5584 39.3209C75.5584 41.3975 75.049 43.3424 74.1612 45.0153C74.0449 45.2346 74.2833 45.5074 74.517 45.4239C75.5192 45.066 76.5886 44.8719 77.6992 44.8719C83.3883 44.8719 88 49.9419 88 56.1959C88 62.4499 83.3883 67.5199 77.6992 67.5199C77.6307 67.5199 77.5628 67.5176 77.4949 67.5152L77.3932 67.512C72.1544 67.6359 70.0042 64.0863 68.4275 61.5498C68.1385 61.0849 67.3524 61.2867 67.4183 61.8301C68.0304 66.883 71.0925 73.339 71.0925 75.0675C71.0925 75.5825 70.675 76 70.16 76H60.84Z" fill="#211C1D"/>
<path d="M60.84 156C60.325 156 59.9075 156.418 59.9075 156.933C59.9075 158.661 62.9696 165.117 63.5817 170.17C63.6476 170.713 62.8615 170.915 62.5725 170.45C60.9958 167.914 58.8456 164.364 53.6068 164.488L53.5051 164.485C53.4372 164.482 53.3693 164.48 53.3008 164.48C47.6117 164.48 43 169.55 43 175.804C43 182.058 47.6117 187.128 53.3008 187.128C54.4114 187.128 55.4808 186.934 56.483 186.576C56.7167 186.493 56.9551 186.765 56.8388 186.985C55.951 188.658 55.4416 190.603 55.4416 192.679C55.4416 198.844 59.875 204 65.5 204C71.125 204 75.5584 198.844 75.5584 192.679C75.5584 190.603 75.049 188.658 74.1612 186.985C74.0449 186.765 74.2833 186.493 74.517 186.576C75.5192 186.934 76.5886 187.128 77.6992 187.128C83.3883 187.128 88 182.058 88 175.804C88 169.55 83.3883 164.48 77.6992 164.48C77.6307 164.48 77.5628 164.482 77.4949 164.485L77.3932 164.488C72.1544 164.364 70.0042 167.914 68.4275 170.45C68.1385 170.915 67.3524 170.713 67.4183 170.17C68.0304 165.117 71.0925 158.661 71.0925 156.933C71.0925 156.418 70.675 156 70.16 156H60.84Z" fill="#211C1D"/>
<path d="M148.84 76C148.325 76 147.908 75.5825 147.908 75.0675C147.908 73.339 150.97 66.8831 151.582 61.8301C151.648 61.2867 150.862 61.0849 150.573 61.5498C148.996 64.0863 146.846 67.6359 141.607 67.512L141.505 67.5152C141.437 67.5176 141.369 67.5199 141.301 67.5199C135.612 67.5199 131 62.4499 131 56.1959C131 49.9419 135.612 44.8719 141.301 44.8719C142.411 44.8719 143.481 45.066 144.483 45.4239C144.717 45.5074 144.955 45.2346 144.839 45.0153C143.951 43.3424 143.442 41.3975 143.442 39.3209C143.442 33.156 147.875 28 153.5 28C159.125 28 163.558 33.156 163.558 39.3209C163.558 41.3975 163.049 43.3424 162.161 45.0153C162.045 45.2346 162.283 45.5074 162.517 45.4239C163.519 45.066 164.589 44.8719 165.699 44.8719C171.388 44.8719 176 49.9419 176 56.1959C176 62.4499 171.388 67.5199 165.699 67.5199C165.631 67.5199 165.563 67.5176 165.495 67.5152L165.393 67.512C160.154 67.6359 158.004 64.0863 156.427 61.5498C156.138 61.0849 155.352 61.2867 155.418 61.8301C156.03 66.883 159.092 73.339 159.092 75.0675C159.092 75.5825 158.675 76 158.16 76H148.84Z" fill="#211C1D"/>
<path d="M60.84 140C60.325 140 59.9075 139.582 59.9075 139.067C59.9075 137.339 62.9696 130.883 63.5817 125.83C63.6476 125.287 62.8615 125.085 62.5725 125.55C60.9958 128.086 58.8456 131.636 53.6068 131.512L53.5051 131.515C53.4372 131.518 53.3693 131.52 53.3008 131.52C47.6117 131.52 43 126.45 43 120.196C43 113.942 47.6117 108.872 53.3008 108.872C54.4114 108.872 55.4808 109.066 56.483 109.424C56.7167 109.507 56.9551 109.235 56.8388 109.015C55.951 107.342 55.4416 105.397 55.4416 103.321C55.4416 97.156 59.875 92 65.5 92C71.125 92 75.5584 97.156 75.5584 103.321C75.5584 105.397 75.049 107.342 74.1612 109.015C74.0449 109.235 74.2833 109.507 74.517 109.424C75.5192 109.066 76.5886 108.872 77.6992 108.872C83.3883 108.872 88 113.942 88 120.196C88 126.45 83.3883 131.52 77.6992 131.52C77.6307 131.52 77.5628 131.518 77.4949 131.515L77.3932 131.512C72.1544 131.636 70.0042 128.086 68.4275 125.55C68.1385 125.085 67.3524 125.287 67.4183 125.83C68.0304 130.883 71.0925 137.339 71.0925 139.067C71.0925 139.582 70.675 140 70.16 140H60.84Z" fill="#211C1D"/>
<path d="M60.84 220C60.325 220 59.9075 220.418 59.9075 220.933C59.9075 222.661 62.9696 229.117 63.5817 234.17C63.6476 234.713 62.8615 234.915 62.5725 234.45C60.9958 231.914 58.8456 228.364 53.6068 228.488L53.5051 228.485C53.4372 228.482 53.3693 228.48 53.3008 228.48C47.6117 228.48 43 233.55 43 239.804C43 246.058 47.6117 251.128 53.3008 251.128C54.4114 251.128 55.4808 250.934 56.483 250.576C56.7167 250.493 56.9551 250.765 56.8388 250.985C55.951 252.658 55.4416 254.603 55.4416 256.679C55.4416 262.844 59.875 268 65.5 268C71.125 268 75.5584 262.844 75.5584 256.679C75.5584 254.603 75.049 252.658 74.1612 250.985C74.0449 250.765 74.2833 250.493 74.517 250.576C75.5192 250.934 76.5886 251.128 77.6992 251.128C83.3883 251.128 88 246.058 88 239.804C88 233.55 83.3883 228.48 77.6992 228.48C77.6307 228.48 77.5628 228.482 77.4949 228.485L77.3932 228.488C72.1544 228.364 70.0042 231.914 68.4275 234.45C68.1385 234.915 67.3524 234.713 67.4183 234.17C68.0304 229.117 71.0925 222.661 71.0925 220.933C71.0925 220.418 70.675 220 70.16 220H60.84Z" fill="#211C1D"/>
<path d="M148.84 140C148.325 140 147.908 139.582 147.908 139.067C147.908 137.339 150.97 130.883 151.582 125.83C151.648 125.287 150.862 125.085 150.573 125.55C148.996 128.086 146.846 131.636 141.607 131.512L141.505 131.515C141.437 131.518 141.369 131.52 141.301 131.52C135.612 131.52 131 126.45 131 120.196C131 113.942 135.612 108.872 141.301 108.872C142.411 108.872 143.481 109.066 144.483 109.424C144.717 109.507 144.955 109.235 144.839 109.015C143.951 107.342 143.442 105.397 143.442 103.321C143.442 97.156 147.875 92 153.5 92C159.125 92 163.558 97.156 163.558 103.321C163.558 105.397 163.049 107.342 162.161 109.015C162.045 109.235 162.283 109.507 162.517 109.424C163.519 109.066 164.589 108.872 165.699 108.872C171.388 108.872 176 113.942 176 120.196C176 126.45 171.388 131.52 165.699 131.52C165.631 131.52 165.563 131.518 165.495 131.515L165.393 131.512C160.154 131.636 158.004 128.086 156.427 125.55C156.138 125.085 155.352 125.287 155.418 125.83C156.03 130.883 159.092 137.339 159.092 139.067C159.092 139.582 158.675 140 158.16 140H148.84Z" fill="#211C1D"/>
<path d="M104.84 108C104.325 108 103.908 107.582 103.908 107.067C103.908 105.339 106.97 98.8831 107.582 93.8301C107.648 93.2867 106.862 93.0849 106.573 93.5498C104.996 96.0863 102.846 99.6359 97.6068 99.512L97.5051 99.5152C97.4372 99.5176 97.3693 99.5199 97.3008 99.5199C91.6117 99.5199 87 94.4499 87 88.1959C87 81.9419 91.6117 76.8719 97.3008 76.8719C98.4114 76.8719 99.4808 77.066 100.483 77.4239C100.717 77.5074 100.955 77.2346 100.839 77.0153C99.951 75.3424 99.4416 73.3975 99.4416 71.3209C99.4416 65.156 103.875 60 109.5 60C115.125 60 119.558 65.156 119.558 71.3209C119.558 73.3975 119.049 75.3424 118.161 77.0153C118.045 77.2346 118.283 77.5074 118.517 77.4239C119.519 77.066 120.589 76.8719 121.699 76.8719C127.388 76.8719 132 81.9419 132 88.1959C132 94.4499 127.388 99.5199 121.699 99.5199C121.631 99.5199 121.563 99.5176 121.495 99.5152L121.393 99.512C116.154 99.6359 114.004 96.0863 112.427 93.5498C112.138 93.0849 111.352 93.2867 111.418 93.8301C112.03 98.883 115.092 105.339 115.092 107.067C115.092 107.582 114.675 108 114.16 108H104.84Z" fill="#211C1D"/>
<path d="M104.84 188C104.325 188 103.908 188.418 103.908 188.933C103.908 190.661 106.97 197.117 107.582 202.17C107.648 202.713 106.862 202.915 106.573 202.45C104.996 199.914 102.846 196.364 97.6068 196.488L97.5051 196.485C97.4372 196.482 97.3693 196.48 97.3008 196.48C91.6117 196.48 87 201.55 87 207.804C87 214.058 91.6117 219.128 97.3008 219.128C98.4114 219.128 99.4808 218.934 100.483 218.576C100.717 218.493 100.955 218.765 100.839 218.985C99.951 220.658 99.4416 222.603 99.4416 224.679C99.4416 230.844 103.875 236 109.5 236C115.125 236 119.558 230.844 119.558 224.679C119.558 222.603 119.049 220.658 118.161 218.985C118.045 218.765 118.283 218.493 118.517 218.576C119.519 218.934 120.589 219.128 121.699 219.128C127.388 219.128 132 214.058 132 207.804C132 201.55 127.388 196.48 121.699 196.48C121.631 196.48 121.563 196.482 121.495 196.485L121.393 196.488C116.154 196.364 114.004 199.914 112.427 202.45C112.138 202.915 111.352 202.713 111.418 202.17C112.03 197.117 115.092 190.661 115.092 188.933C115.092 188.418 114.675 188 114.16 188H104.84Z" fill="#211C1D"/>
<path d="M148.84 220C148.325 220 147.908 220.418 147.908 220.933C147.908 222.661 150.97 229.117 151.582 234.17C151.648 234.713 150.862 234.915 150.573 234.45C148.996 231.914 146.846 228.364 141.607 228.488L141.505 228.485C141.437 228.482 141.369 228.48 141.301 228.48C135.612 228.48 131 233.55 131 239.804C131 246.058 135.612 251.128 141.301 251.128C142.411 251.128 143.481 250.934 144.483 250.576C144.717 250.493 144.955 250.765 144.839 250.985C143.951 252.658 143.442 254.603 143.442 256.679C143.442 262.844 147.875 268 153.5 268C159.125 268 163.558 262.844 163.558 256.679C163.558 254.603 163.049 252.658 162.161 250.985C162.045 250.765 162.283 250.493 162.517 250.576C163.519 250.934 164.589 251.128 165.699 251.128C171.388 251.128 176 246.058 176 239.804C176 233.55 171.388 228.48 165.699 228.48C165.631 228.48 165.563 228.482 165.495 228.485L165.393 228.488C160.154 228.364 158.004 231.914 156.427 234.45C156.138 234.915 155.352 234.713 155.418 234.17C156.03 229.117 159.092 222.661 159.092 220.933C159.092 220.418 158.675 220 158.16 220H148.84Z" fill="#211C1D"/>
<path d="M148.84 156C148.325 156 147.908 156.418 147.908 156.933C147.908 158.661 150.97 165.117 151.582 170.17C151.648 170.713 150.862 170.915 150.573 170.45C148.996 167.914 146.846 164.364 141.607 164.488L141.505 164.485C141.437 164.482 141.369 164.48 141.301 164.48C135.612 164.48 131 169.55 131 175.804C131 182.058 135.612 187.128 141.301 187.128C142.411 187.128 143.481 186.934 144.483 186.576C144.717 186.493 144.955 186.765 144.839 186.985C143.951 188.658 143.442 190.603 143.442 192.679C143.442 198.844 147.875 204 153.5 204C159.125 204 163.558 198.844 163.558 192.679C163.558 190.603 163.049 188.658 162.161 186.985C162.045 186.765 162.283 186.493 162.517 186.576C163.519 186.934 164.589 187.128 165.699 187.128C171.388 187.128 176 182.058 176 175.804C176 169.55 171.388 164.48 165.699 164.48C165.631 164.48 165.563 164.482 165.495 164.485L165.393 164.488C160.154 164.364 158.004 167.914 156.427 170.45C156.138 170.915 155.352 170.713 155.418 170.17C156.03 165.117 159.092 158.661 159.092 156.933C159.092 156.418 158.675 156 158.16 156H148.84Z" fill="#211C1D"/>
</g>
</g>
<defs>
<filter id="filter0_d_18_626" x="0" y="0" width="219" height="304" filterUnits="userSpaceOnUse" color-interpolation-filters="sRGB">
<feFlood flood-opacity="0" result="BackgroundImageFix"/>
<feColorMatrix in="SourceAlpha" type="matrix" values="0 0 0 0 0 0 0 0 0 0 0 0 0 0 0 0 0 0 127 0" result="hardAlpha"/>
<feOffset dy="4"/>
<feGaussianBlur stdDeviation="4"/>
<feComposite in2="hardAlpha" operator="out"/>
<feColorMatrix type="matrix" values="0 0 0 0 0.614771 0 0 0 0 0.70094 0 0 0 0 0.806257 0 0 0 1 0"/>
<feBlend mode="normal" in2="BackgroundImageFix" result="effect1_dropShadow_18_626"/>
<feBlend mode="normal" in="SourceGraphic" in2="effect1_dropShadow_18_626" result="shape"/>
</filter>
<clipPath id="clip0_18_626">
<rect x="8" y="4" width="203" height="288" rx="10" fill="white"/>
</clipPath>
</defs>
</svg>

<svg xmlns="http://www.w3.org/2000/svg" width="219" height="304" fill="none" viewBox="0 0 219 304"><g filter="url(#a)"><g clip-path="url(#b)"><rect width="203" height="288" x="8" y="4" fill="#fff" rx="10"/><path fill="#211c1d" d="M15.479 44.2c-1.081 0-1.742-.74-1.742-1.922V18.395c0-1.181.66-1.922 1.742-1.922 1.08 0 1.761.74 1.761 1.922v23.883c0 1.181-.68 1.922-1.761 1.922m2.766-13.333v-1c0-8.289 3.544-13.774 9.73-13.774s9.71 5.485 9.71 13.773v1.001c0 8.268-3.544 13.714-9.73 13.714-6.166 0-9.71-5.426-9.71-13.714m3.504-.98v.94c0 6.667 2.382 10.73 6.226 10.73s6.226-4.063 6.226-10.73v-.94c0-6.667-2.402-10.751-6.246-10.751-3.824 0-6.206 4.084-6.206 10.75M24.032 72a.39.39 0 0 1-.393-.388c0-.72 1.293-3.41 1.551-5.516.028-.227-.304-.31-.426-.117-.666 1.057-1.574 2.536-3.786 2.484l-.043.002-.086.002c-2.402 0-4.349-2.113-4.349-4.719 0-2.605 1.947-4.718 4.35-4.718.468 0 .92.08 1.343.23.098.035.2-.079.15-.17a5 5 0 0 1-.59-2.373C21.753 54.148 23.625 52 26 52s4.247 2.148 4.247 4.717a5 5 0 0 1-.59 2.373c-.05.091.052.205.15.17a4 4 0 0 1 1.344-.23c2.402 0 4.349 2.112 4.349 4.718s-1.947 4.719-4.35 4.719l-.085-.002-.043-.002c-2.212.052-3.12-1.427-3.786-2.484-.122-.194-.454-.11-.426.117.258 2.105 1.551 4.795 1.551 5.515a.39.39 0 0 1-.393.389zM203.521 251.8c1.081 0 1.742.741 1.742 1.922v23.883c0 1.181-.661 1.922-1.742 1.922s-1.761-.741-1.761-1.922v-23.883c0-1.181.68-1.922 1.761-1.922m-2.766 13.333v1.001c0 8.288-3.544 13.773-9.73 13.773s-9.709-5.485-9.709-13.773v-1.001c0-8.268 3.543-13.714 9.729-13.714 6.166 0 9.71 5.426 9.71 13.714m-3.504.981v-.941c0-6.667-2.382-10.731-6.226-10.731s-6.226 4.064-6.226 10.731v.941c0 6.666 2.402 10.75 6.246 10.75 3.824 0 6.206-4.084 6.206-10.75M194.968 224a.39.39 0 0 1 .393.389c0 .72-1.293 3.41-1.551 5.515-.028.227.304.311.426.117.666-1.057 1.574-2.536 3.786-2.484l.043-.002.086-.002c2.402 0 4.349 2.113 4.349 4.719s-1.947 4.718-4.349 4.718c-.469 0-.921-.081-1.344-.23-.099-.035-.199.079-.15.17.375.697.59 1.508.59 2.373 0 2.569-1.872 4.717-4.247 4.717s-4.247-2.148-4.247-4.717c0-.865.215-1.676.59-2.373.049-.091-.051-.205-.15-.17-.423.149-.875.23-1.344.23-2.402 0-4.349-2.112-4.349-4.718s1.947-4.719 4.349-4.719l.086.002.043.002c2.212-.052 3.12 1.427 3.786 2.484.122.194.454.11.426-.117-.258-2.105-1.551-4.795-1.551-5.515a.39.39 0 0 1 .393-.389zM60.84 76a.933.933 0 0 1-.933-.933c0-1.728 3.063-8.184 3.675-13.237.066-.543-.72-.745-1.01-.28-1.576 2.536-3.726 6.086-8.965 5.962l-.102.003-.204.005C47.61 67.52 43 62.45 43 56.196s4.612-11.324 10.3-11.324c1.111 0 2.18.194 3.183.552.234.083.472-.19.356-.409a12.1 12.1 0 0 1-1.397-5.694C55.442 33.156 59.875 28 65.5 28s10.058 5.156 10.058 11.32c0 2.078-.509 4.022-1.397 5.695-.116.22.122.492.356.409a9.4 9.4 0 0 1 3.182-.552c5.69 0 10.301 5.07 10.301 11.324S83.388 67.52 77.7 67.52q-.104 0-.205-.005l-.102-.003c-5.239.124-7.389-3.426-8.966-5.962-.289-.465-1.075-.263-1.009.28.612 5.053 3.674 11.509 3.674 13.237a.933.933 0 0 1-.932.933zM60.84 156a.933.933 0 0 0-.933.933c0 1.728 3.063 8.184 3.675 13.237.066.543-.72.745-1.01.28-1.576-2.536-3.726-6.086-8.965-5.962l-.102-.003a5 5 0 0 0-.204-.005c-5.69 0-10.301 5.07-10.301 11.324s4.612 11.324 10.3 11.324c1.111 0 2.18-.194 3.183-.552.234-.083.472.189.356.409a12.1 12.1 0 0 0-1.397 5.694c0 6.165 4.433 11.321 10.058 11.321s10.058-5.156 10.058-11.321c0-2.076-.509-4.021-1.397-5.694-.116-.22.122-.492.356-.409a9.4 9.4 0 0 0 3.182.552c5.69 0 10.301-5.07 10.301-11.324s-4.612-11.324-10.3-11.324a5 5 0 0 0-.205.005l-.102.003c-5.239-.124-7.389 3.426-8.966 5.962-.289.465-1.075.263-1.009-.28.612-5.053 3.674-11.509 3.674-13.237a.933.933 0 0 0-.932-.933zM148.84 76a.93.93 0 0 1-.932-.933c0-1.728 3.062-8.184 3.674-13.237.066-.543-.72-.745-1.009-.28-1.577 2.536-3.727 6.086-8.966 5.962l-.102.003-.204.005c-5.689 0-10.301-5.07-10.301-11.324s4.612-11.324 10.301-11.324c1.11 0 2.18.194 3.182.552.234.083.472-.19.356-.409a12.1 12.1 0 0 1-1.397-5.694c0-6.165 4.433-11.321 10.058-11.321s10.058 5.156 10.058 11.32c0 2.078-.509 4.022-1.397 5.695-.116.22.122.492.356.409a9.4 9.4 0 0 1 3.182-.552c5.689 0 10.301 5.07 10.301 11.324s-4.612 11.324-10.301 11.324q-.102 0-.204-.005l-.102-.003c-5.239.124-7.389-3.426-8.966-5.962-.289-.465-1.075-.263-1.009.28.612 5.053 3.674 11.509 3.674 13.237a.93.93 0 0 1-.932.933zM60.84 140a.933.933 0 0 1-.933-.933c0-1.728 3.063-8.184 3.675-13.237.066-.543-.72-.745-1.01-.28-1.576 2.536-3.726 6.086-8.965 5.962l-.102.003a5 5 0 0 1-.204.005c-5.69 0-10.301-5.07-10.301-11.324s4.612-11.324 10.3-11.324c1.111 0 2.18.194 3.183.552.234.083.472-.189.356-.409a12.1 12.1 0 0 1-1.397-5.694C55.442 97.156 59.875 92 65.5 92s10.058 5.156 10.058 11.321c0 2.076-.509 4.021-1.397 5.694-.116.22.122.492.356.409a9.4 9.4 0 0 1 3.182-.552c5.69 0 10.301 5.07 10.301 11.324s-4.612 11.324-10.3 11.324a5 5 0 0 1-.205-.005l-.102-.003c-5.239.124-7.389-3.426-8.966-5.962-.289-.465-1.075-.263-1.009.28.612 5.053 3.674 11.509 3.674 13.237a.933.933 0 0 1-.932.933zM60.84 220a.933.933 0 0 0-.933.933c0 1.728 3.063 8.184 3.675 13.237.066.543-.72.745-1.01.28-1.576-2.536-3.726-6.086-8.965-5.962l-.102-.003a5 5 0 0 0-.204-.005c-5.69 0-10.301 5.07-10.301 11.324s4.612 11.324 10.3 11.324c1.111 0 2.18-.194 3.183-.552.234-.083.472.189.356.409a12.1 12.1 0 0 0-1.397 5.694c0 6.165 4.433 11.321 10.058 11.321s10.058-5.156 10.058-11.321c0-2.076-.509-4.021-1.397-5.694-.116-.22.122-.492.356-.409a9.4 9.4 0 0 0 3.182.552c5.69 0 10.301-5.07 10.301-11.324s-4.612-11.324-10.3-11.324a5 5 0 0 0-.205.005l-.102.003c-5.239-.124-7.389 3.426-8.966 5.962-.289.465-1.075.263-1.009-.28.612-5.053 3.674-11.509 3.674-13.237a.933.933 0 0 0-.932-.933zM148.84 140a.933.933 0 0 1-.932-.933c0-1.728 3.062-8.184 3.674-13.237.066-.543-.72-.745-1.009-.28-1.577 2.536-3.727 6.086-8.966 5.962l-.102.003a5 5 0 0 1-.204.005c-5.689 0-10.301-5.07-10.301-11.324s4.612-11.324 10.301-11.324c1.11 0 2.18.194 3.182.552.234.083.472-.189.356-.409a12.1 12.1 0 0 1-1.397-5.694c0-6.165 4.433-11.321 10.058-11.321s10.058 5.156 10.058 11.321c0 2.076-.509 4.021-1.397 5.694-.116.22.122.492.356.409a9.4 9.4 0 0 1 3.182-.552c5.689 0 10.301 5.07 10.301 11.324s-4.612 11.324-10.301 11.324q-.102 0-.204-.005l-.102-.003c-5.239.124-7.389-3.426-8.966-5.962-.289-.465-1.075-.263-1.009.28.612 5.053 3.674 11.509 3.674 13.237a.933.933 0 0 1-.932.933zM104.84 108a.933.933 0 0 1-.932-.933c0-1.728 3.062-8.184 3.674-13.237.066-.543-.72-.745-1.009-.28-1.577 2.536-3.727 6.086-8.966 5.962l-.102.003-.204.005C91.61 99.52 87 94.45 87 88.196s4.612-11.324 10.3-11.324c1.111 0 2.18.194 3.183.552.234.083.472-.19.356-.409a12.1 12.1 0 0 1-1.397-5.694C99.442 65.156 103.875 60 109.5 60s10.058 5.156 10.058 11.32c0 2.078-.509 4.022-1.397 5.695-.116.22.122.492.356.409a9.4 9.4 0 0 1 3.182-.552c5.689 0 10.301 5.07 10.301 11.324s-4.612 11.324-10.301 11.324q-.102 0-.204-.005l-.102-.003c-5.239.124-7.389-3.426-8.966-5.962-.289-.465-1.075-.263-1.009.28.612 5.053 3.674 11.509 3.674 13.237a.933.933 0 0 1-.932.933zM104.84 188a.933.933 0 0 0-.932.933c0 1.728 3.062 8.184 3.674 13.237.066.543-.72.745-1.009.28-1.577-2.536-3.727-6.086-8.966-5.962l-.102-.003a5 5 0 0 0-.204-.005c-5.69 0-10.301 5.07-10.301 11.324s4.612 11.324 10.3 11.324c1.111 0 2.18-.194 3.183-.552.234-.083.472.189.356.409a12.1 12.1 0 0 0-1.397 5.694c0 6.165 4.433 11.321 10.058 11.321s10.058-5.156 10.058-11.321c0-2.076-.509-4.021-1.397-5.694-.116-.22.122-.492.356-.409a9.4 9.4 0 0 0 3.182.552c5.689 0 10.301-5.07 10.301-11.324s-4.612-11.324-10.301-11.324q-.102 0-.204.005l-.102.003c-5.239-.124-7.389 3.426-8.966 5.962-.289.465-1.075.263-1.009-.28.612-5.053 3.674-11.509 3.674-13.237a.933.933 0 0 0-.932-.933zM148.84 220a.933.933 0 0 0-.932.933c0 1.728 3.062 8.184 3.674 13.237.066.543-.72.745-1.009.28-1.577-2.536-3.727-6.086-8.966-5.962l-.102-.003a5 5 0 0 0-.204-.005c-5.689 0-10.301 5.07-10.301 11.324s4.612 11.324 10.301 11.324c1.11 0 2.18-.194 3.182-.552.234-.083.472.189.356.409a12.1 12.1 0 0 0-1.397 5.694c0 6.165 4.433 11.321 10.058 11.321s10.058-5.156 10.058-11.321c0-2.076-.509-4.021-1.397-5.694-.116-.22.122-.492.356-.409a9.4 9.4 0 0 0 3.182.552c5.689 0 10.301-5.07 10.301-11.324s-4.612-11.324-10.301-11.324q-.102 0-.204.005l-.102.003c-5.239-.124-7.389 3.426-8.966 5.962-.289.465-1.075.263-1.009-.28.612-5.053 3.674-11.509 3.674-13.237a.933.933 0 0 0-.932-.933zM148.84 156a.933.933 0 0 0-.932.933c0 1.728 3.062 8.184 3.674 13.237.066.543-.72.745-1.009.28-1.577-2.536-3.727-6.086-8.966-5.962l-.102-.003a5 5 0 0 0-.204-.005c-5.689 0-10.301 5.07-10.301 11.324s4.612 11.324 10.301 11.324c1.11 0 2.18-.194 3.182-.552.234-.083.472.189.356.409a12.1 12.1 0 0 0-1.397 5.694c0 6.165 4.433 11.321 10.058 11.321s10.058-5.156 10.058-11.321c0-2.076-.509-4.021-1.397-5.694-.116-.22.122-.492.356-.409a9.4 9.4 0 0 0 3.182.552c5.689 0 10.301-5.07 10.301-11.324s-4.612-11.324-10.301-11.324q-.102 0-.204.005l-.102.003c-5.239-.124-7.389 3.426-8.966 5.962-.289.465-1.075.263-1.009-.28.612-5.053 3.674-11.509 3.674-13.237a.933.933 0 0 0-.932-.933z"/></g></g><defs><clipPath id="b"><rect width="203" height="288" x="8" y="4" fill="#fff" rx="10"/></clipPath><filter id="a" width="219" height="304" x="0" y="0" color-interpolation-filters="sRGB" filterUnits="userSpaceOnUse"><feFlood flood-opacity="0" result="BackgroundImageFix"/><feColorMatrix in="SourceAlpha" result="hardAlpha" values="0 0 0 0 0 0 0 0 0 0 0 0 0 0 0 0 0 0 127 0"/><feOffset dy="4"/><feGaussianBlur stdDeviation="4"/><feComposite in2="hardAlpha" operator="out"/><feColorMatrix values="0 0 0 0 0.614771 0 0 0 0 0.70094 0 0 0 0 0.806257 0 0 0 1 0"/><feBlend in2="BackgroundImageFix" result="effect1_dropShadow_18_626"/><feBlend in="SourceGraphic" in2="effect1_dropShadow_18_626" result="shape"/></filter></defs></svg>
